X:1
T:Jenny Lind
M:4/4
L:1/8
K:D
|:AG|"D"F2A2 "G"G2B2|"D"A2f2 fef2|"A"G2e2 ede2|"D"F2d2 "A7"dcd2|
"D"F2A2 "G"G2B2|"D"A2f2 fef2|"G"g2e2 "A7"egfe|"D"d2f2 d2:|
K:G
|:"C"g2gf egfe|"G"d2B2 BAB2|"D"c2A2 AGA2|"G"B2G2 G4|
"C"g2gf egfe|"G"d2B2 BAB2|"D"c2A2 AcBA|"G"G2B2 G2z2:|
